X:1000
T:Reel in A & D
T:Reel des pilotes
S:From the playing of Sabin Jacques, Quebecois Social Dance, Ashokan 1997
N:Nearly every part of the tune was subject to variation, so this is really a sampling of
N:how it was played.This was played by the Trio Rosaire Girard under the name Reel des
N:pilotes (on $2 100 Ans de Musique Traditionnelle Quebecoise, Vol. 2: Deuxieme Epoque $0
N:$2 1940-1960,$0 compiled by Gabriel Labbé). I've seen it under other names as well.
M:2/4
L:1/16
Q:"Both parts are double length"
R:Reel
G:Reels ~ Canadian ~ Quebec 
H:This tune is from the NH Country Dance website. Look for more tunes 
H:(New England, Canadian, Swedish) as well as resources for abc notation and 
H:New England traditional music and dance; URL below.
U:s = !slide!       % To preserve font, staff layout & other formatting,
U:t = !trill!       % use the file header at the URL below. There are
F:Tunes Home Page - http://nhcountrydance.com/fiddle/the-tunes.html
F:File Header & instructions - http://nhcountrydance.com/fiddle/headers.html
K:A
E |\
"A" A2EA c2Ac      | "A" eece az zE       | "A" AcEA c2cA   | "D" BcdB F3F      |
"E7" B2GB d2Bd     | "E7" g2g2- g>g (3fgf | "E7" e2gf edcB   |1-3 y"A" A2ce a2z  :|4 "A" A2ce a2z2 ||
K:D
|: "D" f6a2        | "D" d4 d2=c2         | "G" B6 g2        | "E7 " B4-Bc (3BcB |\
"A7" A2>A2 c2e2    | "A7" a^gab a=gec     | 
|[1,3 y "A7" a2g2 e2=f2 | "D" ^f2zd B2A2   \
:|2 "A7" a2ag B2c2 | "D" dfec d2 z       :|4 "A7" a2ag B2c2 | "D" dfec d2 |]

